svg/power_alt.svg

<svg xmlns="http://www.w3.org/2000/svg" viewBox="0 0 24 24"><path d="m16.56 5.44-1.45 1.45A5.97 5.97 0 0 1 18 12a6 6 0 0 1-6 6 6 6 0 0 1-6-6c0-2.17 1.16-4.06 2.88-5.12L7.44 5.44A7.96 7.96 0 0 0 4 12a8 8 0 0 0 8 8 8 8 0 0 0 8-8c0-2.72-1.36-5.12-3.44-6.56M13 3h-2v10h2"/></svg>

<?xml version="1.0" encoding="UTF-8"?><!DOCTYPE svg PUBLIC "-//W3C//DTD SVG 1.1//EN" "http://www.w3.org/Graphics/SVG/1.1/DTD/svg11.dtd"><svg xmlns="http://www.w3.org/2000/svg" xmlns:xlink="http://www.w3.org/1999/xlink" version="1.1" id="mdi-power" width="24" height="24" viewBox="0 0 24 24"><path d="M16.56,5.44L15.11,6.89C16.84,7.94 18,9.83 18,12A6,6 0 0,1 12,18A6,6 0 0,1 6,12C6,9.83 7.16,7.94 8.88,6.88L7.44,5.44C5.36,6.88 4,9.28 4,12A8,8 0 0,0 12,20A8,8 0 0,0 20,12C20,9.28 18.64,6.88 16.56,5.44M13,3H11V13H13" /></svg>
